ligands/tetradentate/12-crown-4.svg

<svg height="122" viewBox="0 0 110 122" width="110" xmlns="http://www.w3.org/2000/svg"><text font-family="Helvetica" font-size="480" font-weight="bold" transform="matrix(.05 0 0 .05 73.65 40.387)">o</text><text font-family="Helvetica" font-size="480" font-weight="bold" transform="matrix(.05 0 0 .05 73.65 100.387)">o</text><text font-family="Helvetica" font-size="480" font-weight="bold" transform="matrix(.05 0 0 .05 21.69 100.387)">o</text><text font-family="Helvetica" font-size="480" font-weight="bold" transform="matrix(.05 0 0 .05 21.69 40.387)">o</text><g transform="matrix(.05 0 0 .05 -215 -299)"><path d="m6067.42 6711.89 10-17.32 371.78 214.66-20 11.54z"/><path d="m6429.2 6920.77 20-11.54v611.54l-20-11.54z"/><path d="m6429.2 7509.23 20 11.54-375.59 216.86-10-17.33z"/><path d="m5844.87 7983.02 18.68 7.13-146.66 384.85-13.78-20z"/><path d="m5166.13 8355-12.26 20-199.74-392.91 17.82-9.06z"/><path d="m4733.94 7718.89-10 17.32-373.14-215.44 20-11.54z"/><path d="m4370.8 7509.23-20 11.54v-611.54l20 11.54z"/><path d="m4370.8 6920.77-20-11.54 369.33-213.24 10 17.32z"/><path d="m4944.12 6452.25-19.01-6.22 137.64-421.03 14.5 20z"/><path d="m5871.89 6445.62-18.92 6.51-140.1-407.13 14.26-20z"/><path d="m5380.29 7180.01-.29 14.99-13.01.21-375.73-436.19 15.15-13.06z"/><path d="m5393.45 7195.22-13.45-.22.29-14.99 407.06-437.54 14.64 13.63z"/><path d="m5366.99 7195.21 13.01-.21.3 15.57-382.1 474.18-15.57-12.55z"/><path d="m5380.3 7210.57-.3-15.57 13.45.22 417.29 479.47-15.08 13.13z"/><path d="m5020 7195a360 360 0 1 0 720 0 360 360 0 1 0 -720 0z" fill="#fa666a"/><path d="m5077.25 6045-14.5-20h664.38l-14.26 20z"/><path d="m5153.87 8375 12.26-20h536.98l13.78 20z"/></g></svg>

<?xml version="1.0" standalone="no" ?>
<!DOCTYPE svg PUBLIC "-//W3C//DTD SVG 1.1//EN" "http://www.w3.org/Graphics/SVG/1.1/DTD/svg11.dtd">
<svg width="110px" height="122px" viewBox="0 0 110 122" style="background-color: #ffffff00" xmlns="http://www.w3.org/2000/svg" xmlns:xlink="http://www.w3.org/1999/xlink" version="1.1" >
<text x="0" y="0" stroke="none" fill="#000000" transform="matrix(0.05 0 0 0.05 73.6499 40.3867)" font-style="normal" font-weight="bold" font-size="480px" font-family="Helvetica" >
o</text>
<text x="0" y="0" stroke="none" fill="#000000" transform="matrix(0.05 0 0 0.05 73.6499 100.387)" font-style="normal" font-weight="bold" font-size="480px" font-family="Helvetica" >
o</text>
<text x="0" y="0" stroke="none" fill="#000000" transform="matrix(0.05 0 0 0.05 21.6899 100.387)" font-style="normal" font-weight="bold" font-size="480px" font-family="Helvetica" >
o</text>
<text x="0" y="0" stroke="none" fill="#000000" transform="matrix(0.05 0 0 0.05 21.6899 40.3867)" font-style="normal" font-weight="bold" font-size="480px" font-family="Helvetica" >
o</text>
<path stroke="none" fill="#000000" transform="matrix(0.05 0 0 0.05 -215 -299)" d="M 6067.42,6711.89 L 6077.42,6694.57 L 6449.2,6909.23 L 6429.2,6920.77 L 6067.42,6711.89 Z " />
<path stroke="none" fill="#000000" transform="matrix(0.05 0 0 0.05 -215 -299)" d="M 6429.2,6920.77 L 6449.2,6909.23 L 6449.2,7520.77 L 6429.2,7509.23 L 6429.2,6920.77 Z " />
<path stroke="none" fill="#000000" transform="matrix(0.05 0 0 0.05 -215 -299)" d="M 6429.2,7509.23 L 6449.2,7520.77 L 6073.61,7737.63 L 6063.61,7720.3 L 6429.2,7509.23 Z " />
<path stroke="none" fill="#000000" transform="matrix(0.05 0 0 0.05 -215 -299)" d="M 5844.87,7983.02 L 5863.55,7990.15 L 5716.89,8375 L 5703.11,8355 L 5844.87,7983.02 Z " />
<path stroke="none" fill="#000000" transform="matrix(0.05 0 0 0.05 -215 -299)" d="M 5166.13,8355 L 5153.87,8375 L 4954.13,7982.09 L 4971.95,7973.03 L 5166.13,8355 Z " />
<path stroke="none" fill="#000000" transform="matrix(0.05 0 0 0.05 -215 -299)" d="M 4733.94,7718.89 L 4723.94,7736.21 L 4350.8,7520.77 L 4370.8,7509.23 L 4733.94,7718.89 Z " />
<path stroke="none" fill="#000000" transform="matrix(0.05 0 0 0.05 -215 -299)" d="M 4370.8,7509.23 L 4350.8,7520.77 L 4350.8,6909.23 L 4370.8,6920.77 L 4370.8,7509.23 Z " />
<path stroke="none" fill="#000000" transform="matrix(0.05 0 0 0.05 -215 -299)" d="M 4370.8,6920.77 L 4350.8,6909.23 L 4720.13,6695.99 L 4730.13,6713.31 L 4370.8,6920.77 Z " />
<path stroke="none" fill="#000000" transform="matrix(0.05 0 0 0.05 -215 -299)" d="M 4944.12,6452.25 L 4925.11,6446.03 L 5062.75,6025 L 5077.25,6045 L 4944.12,6452.25 Z " />
<path stroke="none" fill="#000000" transform="matrix(0.05 0 0 0.05 -215 -299)" d="M 5871.89,6445.62 L 5852.97,6452.13 L 5712.87,6045 L 5727.13,6025 L 5871.89,6445.62 Z " />
<path stroke="none" fill="#000000" transform="matrix(0.05 0 0 0.05 -215 -299)" d="M 5380.29,7180.01 L 5380,7195 L 5366.99,7195.21 L 4991.26,6759.02 L 5006.41,6745.96 L 5380.29,7180.01 Z " />
<path stroke="none" fill="#000000" transform="matrix(0.05 0 0 0.05 -215 -299)" d="M 5393.45,7195.22 L 5380,7195 L 5380.29,7180.01 L 5787.35,6742.47 L 5801.99,6756.1 L 5393.45,7195.22 Z " />
<path stroke="none" fill="#000000" transform="matrix(0.05 0 0 0.05 -215 -299)" d="M 5366.99,7195.21 L 5380,7195 L 5380.3,7210.57 L 4998.2,7684.75 L 4982.63,7672.2 L 5366.99,7195.21 Z " />
<path stroke="none" fill="#000000" transform="matrix(0.05 0 0 0.05 -215 -299)" d="M 5380.3,7210.57 L 5380,7195 L 5393.45,7195.22 L 5810.74,7674.69 L 5795.66,7687.82 L 5380.3,7210.57 Z " />
<path stroke="none" fill="#fa666a" transform="matrix(0.05 0 0 0.05 -215 -299)" d="M 5020,7195 A 360,360 0 1 0 5740,7195 A 360,360 0 1 0 5020,7195 Z " />
<path stroke="none" fill="#000000" transform="matrix(0.05 0 0 0.05 -215 -299)" d="M 5077.25,6045 L 5062.75,6025 L 5727.13,6025 L 5712.87,6045 L 5077.25,6045 Z " />
<path stroke="none" fill="#000000" transform="matrix(0.05 0 0 0.05 -215 -299)" d="M 5153.87,8375 L 5166.13,8355 L 5703.11,8355 L 5716.89,8375 L 5153.87,8375 Z " />
</svg>
